dist/svg/install.svg

<!-- Generated by Trend Micro Style Portal -->
<svg version="1.1" xmlns="http://www.w3.org/2000/svg" width="16" height="16" viewBox="0 0 16 16">
  <title>install</title>
  <path fill="rgb(34,34,34)" d="M8 11l-5-5h3v-5h4v5h3l-5 5zM15 10h-4l-3 3-3-3h-4c-0.6 0-1 0.4-1 1v3c0 0.6 0.4 1 1 1h14c0.6 0 1-0.4 1-1v-3c0-0.5-0.4-1-1-1z"></path>
</svg>

<svg width="16" height="16" viewBox="0 0 16 16" fill="rgb(34, 34, 34)" xmlns="http://www.w3.org/2000/svg"><title>install</title><path d="M8 11L3 6H6V1H10V6H13L8 11ZM15 10H11L8 13L5 10H1C0.4 10 0 10.4 0 11V14C0 14.6 0.4 15 1 15H15C15.6 15 16 14.6 16 14V11C16 10.5 15.6 10 15 10Z" fill="rgb(34, 34, 34)" fill-opacity="1.00"/></svg>
